X:1
T:Title
%%score { ( 1 3 ) | ( 2 4 ) }
L:1/8
M:4/4
K:Eb
V:1 treble nm="Grand Piano"
V:3 treble 
V:2 bass 
V:4 bass 
V:1
 z4 z2[Q:1/4=92] E>F | G>G G>G G>B E>F | G>G [DG]>[DF] E2 B>B | c>c c>e c>B B>G | %4
 [DF]>[DF] [DF]>[EG] [DF]2 [DF]>[EG] | [DA]>[DA] [DA]>[DA] [DA]>[Ac] [GB]>[FA] | %6
 G>G G>A B2 [GB]>[GB] | c>e e>c [Ac]>[GB] [B,E]>[CEF] |[M:3/4] [B,EG]>[B,FA] [B,EG]>[A,DF] [G,E]2 | %9
[M:1/4] [B,GB]>[Ge] |[M:4/4] [Ad]6 z2 | [GB]4 z4 | [Ad]6 z2 | [GB]6 z2 | E6 z2 | [Ec]4 z4 | %16
 [Ad]6 z2 |[M:3/4] e->[B,e-] [Ae-]>[Ae-] [Ge]2 |] %18
V:2
 z4 z2 [E,G,]>[E,A,E] | [E,B,E]>[E,B,E] [E,B,E]>[E,B,E] [E,B,E]>[E,G,E] [E,G,]>[E,A,E] | %2
 [E,B,E]>[E,B,E] [B,,B,]>[B,,A,] [E,G,]2 [E,G,E]>[E,G,E] | %3
 [A,E]>[A,E] [A,E]>[A,CE] [E,A,E]>[E,G,E] [E,G,E]>[E,B,E] | %4
 [B,,B,]>[B,,B,] [B,,B,]>[B,,B,] [B,,B,]2 [B,,B,]>[B,,B,] | %5
 [B,,F,]>[B,,F,] [B,,F,]>[B,,F,] [B,,F,]>[B,,B,] [C,B,]>[D,B,] | %6
 [E,B,E]>[E,B,E] [E,B,E]>[F,B,D] [G,B,E]2 [E,E]>[E,E] | %7
 [A,EA]>[A,CA] [A,CA]>[A,EA][K:bass] [E,E]>[E,E] G,,>A,, |[M:3/4] B,,>B,, B,,>B,, E,2 | %9
[M:1/4] E,>[E,B,] |[M:4/4] [B,,B,]>B,, B,,>B,, B,,>[B,,B,] B,,>B,, | %11
 E,>E, E,>E, [E,B,E]2 [E,B,]>[E,B,] | [B,,B,]>B,, B,,>B,, B,,>[B,,B,] B,,>B,, | %13
 E,>E, E,>E, E,2 [E,B,E]>[E,A,B,] | B,6 z2 | [A,,A,]>A,, A,,>A,, [A,,CE]2 [A,,CA]>[A,,CA] | %16
 [B,,B,]>B,, B,,>B,, B,,>[B,,B,] [B,,B,]>[B,,B,] |[M:3/4] [E,B,]>E, [E,C]>[E,C] [E,B,]2 |] %18
V:3
 x8 | x8 | x8 | x8 | x8 | x8 | x8 | x8 |[M:3/4] x6 |[M:1/4] x2 | %10
[M:4/4] z z/ B,/ B,>B, B,>[Ac] [DFA]>[DAc] | E>E E>E G2 [GB]>[Ge] | %12
 z z/ B,/ B,>B, B,>[Ac] [DFA]>[DAc] | E>E E>E E2 G>F | z z/ G,/ G,>G, G,>[B,EG] [A,EA]>[EB] | %15
 z z/ A,/ A,>A, e2 e>e | z z/ B,/ B,>B, B,>[Ad] [Ac]>[Ad] |[M:3/4] G2 z2 z2 |] %18
V:4
 x8 | x8 | x8 | x8 | x8 | x8 | x8 | x4[K:bass] x4 |[M:3/4] x6 |[M:1/4] x2 |[M:4/4] x8 | x8 | x8 | %13
 x8 | [E,G,]>E, E,>E, E,>_D, C,>[B,,G,] | x8 | x8 |[M:3/4] x6 |] %18

